X:1
T:Title
%%score { ( 1 3 ) | 2 }
L:1/8
M:6/8
K:Ab
V:1 treble nm="Grand Piano"
V:3 treble 
V:2 bass 
V:1
 z3 z2[Q:1/4=94] [CE] | [CE][CA][DB] [Ec][Fd][Ec] | [DB]3 [DF]2 [FA] | GFE EGd | %4
[M:5/8] [Ec]-[Ec]- [Ec]3 |[M:1/8] [CE] |[M:3/4] [CE][CA] [DB][Ec] [Fd][Ec] | [DB]3 [DF]2 [FA] | %8
 GF Ed cB |[M:5/8] [CA]-[CA]- [CA]3 |[M:1/8] [Ec] |[M:3/4] [Fd]6 | [Ec]6 | BG AB c=d | [Ge]6 | %15
 c_c =ce dc | [Fd]3 [DF]2 [Fd] | cB AB FG |[M:5/8] [CA]-[CA]- [CA]3 |] %19
V:2
 z3 z2 [A,,A,] | [A,,A,][A,,A,][A,,A,] [A,,A,][A,,A,][A,,A,] | [D,F,]3 [D,B,]2 [B,,B,] | %3
 [E,B,E][E,A,D][E,G,D] [E,G,D][E,B,E][E,G,E] |[M:5/8] [A,,A,]-[A,,A,]- [A,,A,]3 |[M:1/8] [A,,A,] | %6
[M:3/4] [A,,A,][A,,A,] [A,,A,][A,,A,] [A,,A,][A,,A,] | [D,F,]3 [D,B,]2 [B,,B,] | %8
 [E,B,E][E,A,D] [E,G,D][E,G,F] [E,A,E][E,G,D] |[M:5/8] [A,,A,]-[A,,A,]- [A,,A,]3 |[M:1/8] [A,,A,] | %11
[M:3/4] [D,A,]D, D, D,2 [D,A,] | [A,,A,]A,, A,, A,,2 [A,,A,] | %13
 [E,G,E][E,B,E] [F,B,=D][G,B,E] [A,E][F,B,F] | [E,B,]E, E, E,2 E, | %15
 [A,EA][A,=DA] [A,EA][CEA] [B,EG][A,E_G] | [D,D]3 [D,A,]2 [D,A,] | %17
 [E,A,E][E,A,D] [E,A,C][D,G,D] [E,B,D][E,B,D] |[M:5/8] [A,,A,]A,,A,, A,,2 |] %19
V:3
 x6 | x6 | x6 | x6 |[M:5/8] x5 |[M:1/8] x |[M:3/4] x6 | x6 | x6 |[M:5/8] x5 |[M:1/8] x | %11
[M:3/4] z A, A, A,2 [Fd] | z A, A, A,2 [Ec] | x6 | z B, B, B,2 [EBd] | x6 | x6 | x6 | %18
[M:5/8] z A,A, A,2 |] %19

